static/images/skills/java.svg

<svg xmlns="http://www.w3.org/2000/svg" xml:space="preserve" style="fill-rule:evenodd;clip-rule:evenodd;stroke-linejoin:round;stroke-miterlimit:2" viewBox="0 0 1200 900"><path d="M0 0h1200v900H0z" style="fill:#90d5ff"/><path d="M47.617 98.12s-4.767 2.774 3.397 3.71c9.892 1.13 14.947.968 25.845-1.092 0 0 2.871 1.795 6.873 3.351-24.439 10.47-55.308-.607-36.115-5.969m-2.988-13.665s-5.348 3.959 2.823 4.805c10.567 1.091 18.91 1.18 33.354-1.6 0 0 1.993 2.025 5.132 3.131-29.542 8.64-62.446.68-41.309-6.336" style="fill:#0074bd;fill-rule:nonzero" transform="translate(292.37 142.372)scale(4.8067)"/><path d="M69.802 61.271c6.025 6.935-1.58 13.17-1.58 13.17s15.289-7.891 8.269-17.777c-6.559-9.215-11.587-13.792 15.635-29.58 0 .001-42.731 10.67-22.324 34.187" style="fill:#ea2d2e;fill-rule:nonzero" transform="translate(292.37 142.372)scale(4.8067)"/><path d="M102.123 108.229s3.529 2.91-3.888 5.159c-14.102 4.272-58.706 5.56-71.094.171-4.451-1.938 3.899-4.625 6.526-5.192 2.739-.593 4.303-.485 4.303-.485-4.953-3.487-32.013 6.85-13.743 9.815 49.821 8.076 90.817-3.637 77.896-9.468M49.912 70.294s-22.686 5.389-8.033 7.348c6.188.828 18.518.638 30.011-.326 9.39-.789 18.813-2.474 18.813-2.474s-3.308 1.419-5.704 3.053c-23.042 6.061-67.544 3.238-54.731-2.958 10.832-5.239 19.644-4.643 19.644-4.643m40.697 22.747c23.421-12.167 12.591-23.86 5.032-22.285-1.848.385-2.677.72-2.677.72s.688-1.079 2-1.543c14.953-5.255 26.451 15.503-4.823 23.725 0-.002.359-.327.468-.617" style="fill:#0074bd;fill-rule:nonzero" transform="translate(292.37 142.372)scale(4.8067)"/><path d="M76.491 1.587S89.459 14.563 64.188 34.51c-20.266 16.006-4.621 25.13-.007 35.559-11.831-10.673-20.509-20.07-14.688-28.815C58.041 28.42 81.722 22.195 76.491 1.587" style="fill:#ea2d2e;fill-rule:nonzero" transform="translate(292.37 142.372)scale(4.8067)"/><path d="M52.214 126.021c22.476 1.437 57-.8 57.817-11.436 0 0-1.571 4.032-18.577 7.231-19.186 3.612-42.854 3.191-56.887.874 0 .001 2.875 2.381 17.647 3.331" style="fill:#0074bd;fill-rule:nonzero" transform="translate(292.37 142.372)scale(4.8067)"/></svg>

<?xml version="1.0" encoding="UTF-8" standalone="no"?>
<!DOCTYPE svg PUBLIC "-//W3C//DTD SVG 1.1//EN" "http://www.w3.org/Graphics/SVG/1.1/DTD/svg11.dtd">
<svg width="100%" height="100%" viewBox="0 0 1200 900" version="1.1" xmlns="http://www.w3.org/2000/svg" xmlns:xlink="http://www.w3.org/1999/xlink" xml:space="preserve" xmlns:serif="http://www.serif.com/" style="fill-rule:evenodd;clip-rule:evenodd;stroke-linejoin:round;stroke-miterlimit:2;">
    <rect x="0" y="0" width="1200" height="900" style="fill:rgb(144,213,255);"/>
    <g transform="matrix(4.79233,0,0,4.79233,293.291,143.291)">
        <g transform="matrix(1.003,0,0,1.003,-0.192141,-0.191761)">
            <path d="M47.617,98.12C47.617,98.12 42.85,100.894 51.014,101.83C60.906,102.96 65.961,102.798 76.859,100.738C76.859,100.738 79.73,102.533 83.732,104.089C59.293,114.559 28.424,103.482 47.617,98.12ZM44.629,84.455C44.629,84.455 39.281,88.414 47.452,89.26C58.019,90.351 66.362,90.44 80.806,87.66C80.806,87.66 82.799,89.685 85.938,90.791C56.396,99.431 23.492,91.471 44.629,84.455Z" style="fill:rgb(0,116,189);fill-rule:nonzero;"/>
        </g>
        <g transform="matrix(1.003,0,0,1.003,-0.192141,-0.191761)">
            <path d="M69.802,61.271C75.827,68.206 68.222,74.441 68.222,74.441C68.222,74.441 83.511,66.55 76.491,56.664C69.932,47.449 64.904,42.872 92.126,27.084C92.126,27.085 49.395,37.754 69.802,61.271Z" style="fill:rgb(234,45,46);fill-rule:nonzero;"/>
        </g>
        <g transform="matrix(1.003,0,0,1.003,-0.192141,-0.191761)">
            <path d="M102.123,108.229C102.123,108.229 105.652,111.139 98.235,113.388C84.133,117.66 39.529,118.948 27.141,113.559C22.69,111.621 31.04,108.934 33.667,108.367C36.406,107.774 37.97,107.882 37.97,107.882C33.017,104.395 5.957,114.732 24.227,117.697C74.048,125.773 115.044,114.06 102.123,108.229ZM49.912,70.294C49.912,70.294 27.226,75.683 41.879,77.642C48.067,78.47 60.397,78.28 71.89,77.316C81.28,76.527 90.703,74.842 90.703,74.842C90.703,74.842 87.395,76.261 84.999,77.895C61.957,83.956 17.455,81.133 30.268,74.937C41.1,69.698 49.912,70.294 49.912,70.294ZM90.609,93.041C114.03,80.874 103.2,69.181 95.641,70.756C93.793,71.141 92.964,71.476 92.964,71.476C92.964,71.476 93.652,70.397 94.964,69.933C109.917,64.678 121.415,85.436 90.141,93.658C90.141,93.656 90.5,93.331 90.609,93.041Z" style="fill:rgb(0,116,189);fill-rule:nonzero;"/>
        </g>
        <g transform="matrix(1.003,0,0,1.003,-0.192141,-0.191761)">
            <path d="M76.491,1.587C76.491,1.587 89.459,14.563 64.188,34.51C43.922,50.516 59.567,59.64 64.181,70.069C52.35,59.396 43.672,49.999 49.493,41.254C58.041,28.42 81.722,22.195 76.491,1.587Z" style="fill:rgb(234,45,46);fill-rule:nonzero;"/>
        </g>
        <g transform="matrix(1.003,0,0,1.003,-0.192141,-0.191761)">
            <path d="M52.214,126.021C74.69,127.458 109.214,125.221 110.031,114.585C110.031,114.585 108.46,118.617 91.454,121.816C72.268,125.428 48.6,125.007 34.567,122.69C34.567,122.691 37.442,125.071 52.214,126.021Z" style="fill:rgb(0,116,189);fill-rule:nonzero;"/>
        </g>
    </g>
</svg>
